_includes/icons/ios-physics.svg

<svg fill="#666" height="50" viewBox="0 0 50 50" width="50" xmlns="http://www.w3.org/2000/svg"><path d="m25 0c-1.640625 0-3.132812.808594-4.375 2.125-1.242187 1.316406-2.300781 3.148438-3.15625 5.375-.34375.890625-.65625 1.859375-.9375 2.875-1.003906-.253906-1.976562-.480469-2.90625-.625-1.179687-.1875-2.304687-.28125-3.34375-.28125-1.039062 0-1.996094.105469-2.875.3125-1.761719.414063-3.242187 1.296875-4.0625 2.71875-.820312 1.421875-.863281 3.140625-.34375 4.875s1.59375 3.550781 3.09375 5.40625c.59375.734375 1.273438 1.476563 2 2.21875-.726562.742188-1.40625 1.484375-2 2.21875-1.5 1.855469-2.574219 3.671875-3.09375 5.40625s-.476562 3.453125.34375 4.875c.820313 1.421875 2.300781 2.304688 4.0625 2.71875 1.761719.414063 3.859375.402344 6.21875.03125.929688-.144531 1.902344-.367187 2.90625-.625.28125 1.015625.59375 1.984375.9375 2.875.855469 2.226563 1.914063 4.058594 3.15625 5.375 1.242188 1.316406 2.734375 2.125 4.375 2.125s3.132813-.808594 4.375-2.125c1.242188-1.316406 2.300781-3.148437 3.15625-5.375.34375-.890625.65625-1.859375.9375-2.875 1.003906.257813 1.976563.480469 2.90625.625 2.359375.371094 4.457031.382813 6.21875-.03125 1.761719-.414062 3.242188-1.296875 4.0625-2.71875.820313-1.421875.863281-3.140625.34375-4.875s-1.59375-3.550781-3.09375-5.40625c-.59375-.734375-1.273437-1.476562-2-2.21875.726563-.742187 1.40625-1.484375 2-2.21875 1.5-1.855469 2.574219-3.671875 3.09375-5.40625s.476563-3.453125-.34375-4.875c-.820312-1.421875-2.300781-2.304687-4.0625-2.71875-.878906-.207031-1.835937-.3125-2.875-.3125-1.039062 0-2.164062.09375-3.34375.28125-.929687.144531-1.902344.371094-2.90625.625-.28125-1.015625-.59375-1.984375-.9375-2.875-.855469-2.226562-1.914062-4.058594-3.15625-5.375-1.242187-1.316406-2.734375-2.125-4.375-2.125zm0 2c.988281 0 1.953125.457031 2.9375 1.5s1.925781 2.65625 2.71875 4.71875c.316406.824219.609375 1.726563.875 2.6875-2.074219.640625-4.265625 1.507813-6.53125 2.5625-2.265625-1.054687-4.457031-1.921875-6.53125-2.5625.265625-.960937.558594-1.863281.875-2.6875.792969-2.0625 1.734375-3.675781 2.71875-4.71875s1.949219-1.5 2.9375-1.5zm-14.71875 9.46875c.914063 0 1.941406.078125 3.03125.25.867188.136719 1.792969.347656 2.75.59375-.46875 2.105469-.820312 4.429688-1.03125 6.90625-2.058594 1.4375-3.898437 2.898438-5.5 4.375-.691406-.707031-1.324219-1.410156-1.875-2.09375-1.390625-1.71875-2.304687-3.34375-2.71875-4.71875-.414062-1.375-.339844-2.425781.15625-3.28125s1.355469-1.453125 2.75-1.78125c.699219-.164062 1.523438-.25 2.4375-.25zm29.4375 0c.914063 0 1.738281.085938 2.4375.25 1.394531.328125 2.253906.925781 2.75 1.78125.492188.855469.570313 1.90625.15625 3.28125-.414062 1.375-1.328125 3-2.71875 4.71875-.550781.683594-1.183594 1.386719-1.875 2.09375-1.601562-1.476562-3.441406-2.9375-5.5-4.375-.210937-2.476562-.5625-4.800781-1.03125-6.90625.957031-.246094 1.882813-.457031 2.75-.59375 1.089844-.171875 2.117188-.25 3.03125-.25zm-21.71875 1.40625c1.480469.46875 3.046875 1.023438 4.65625 1.71875-.921875.476563-1.84375.992188-2.78125 1.53125-.929687.535156-1.820312 1.070313-2.6875 1.625.199219-1.738281.480469-3.363281.8125-4.875zm14 0c.332031 1.511719.613281 3.136719.8125 4.875-.867187-.554687-1.761719-1.089844-2.6875-1.625-.9375-.539062-1.859375-1.054687-2.78125-1.53125 1.609375-.695312 3.175781-1.25 4.65625-1.71875zm-7 2.8125c1.355469.660156 2.730469 1.382813 4.125 2.1875 1.382813.796875 2.667969 1.632813 3.90625 2.46875.105469 1.5.1875 3.046875.1875 4.65625s-.082031 3.15625-.1875 4.65625c-1.238281.835938-2.523437 1.671875-3.90625 2.46875-1.394531.804688-2.769531 1.527344-4.125 2.1875-1.355469-.660156-2.730469-1.382812-4.125-2.1875-1.382812-.796875-2.667969-1.632812-3.90625-2.46875-.105469-1.5-.1875-3.046875-.1875-4.65625s.082031-3.15625.1875-4.65625c1.238281-.835937 2.523438-1.667969 3.90625-2.46875 1.394531-.804687 2.769531-1.527344 4.125-2.1875zm0 3.3125c-3.300781 0-6 2.699219-6 6s2.699219 6 6 6 6-2.699219 6-6-2.699219-6-6-6zm0 2c2.222656 0 4 1.777344 4 4s-1.777344 4-4 4-4-1.777344-4-4 1.777344-4 4-4zm-10.15625.8125c-.046875 1.042969-.0625 2.101563-.0625 3.1875 0 1.085938.015625 2.144531.0625 3.1875-1.414062-1.050781-2.664062-2.132812-3.8125-3.1875 1.148438-1.054687 2.398438-2.136719 3.8125-3.1875zm20.3125 0c1.414063 1.050781 2.664063 2.132813 3.8125 3.1875-1.148437 1.054688-2.398437 2.136719-3.8125 3.1875.046875-1.042969.0625-2.101562.0625-3.1875 0-1.085937-.015625-2.144531-.0625-3.1875zm-25.625 4.59375c1.601563 1.472656 3.441406 2.941406 5.5 4.375.210938 2.476563.5625 4.800781 1.03125 6.90625-.957031.246094-1.882812.457031-2.75.59375-2.183594.34375-4.074219.328125-5.46875 0s-2.253906-.925781-2.75-1.78125c-.492187-.855469-.570312-1.9375-.15625-3.3125.414063-1.375 1.328125-2.96875 2.71875-4.6875.550781-.683594 1.183594-1.386719 1.875-2.09375zm30.9375 0c.691406.707031 1.324219 1.410156 1.875 2.09375 1.390625 1.71875 2.304688 3.3125 2.71875 4.6875.414063 1.375.339844 2.457031-.15625 3.3125s-1.355469 1.453125-2.75 1.78125-3.285156.34375-5.46875 0c-.867187-.136719-1.792969-.347656-2.75-.59375.46875-2.105469.820313-4.429687 1.03125-6.90625 2.058594-1.433594 3.898438-2.902344 5.5-4.375zm-23.28125 5.8125c.867188.554688 1.757813 1.089844 2.6875 1.625.941406.542969 1.882813 1.050781 2.8125 1.53125-1.625.703125-3.195312 1.277344-4.6875 1.75-.335937-1.523437-.613281-3.15625-.8125-4.90625zm15.625 0c-.199219 1.75-.476562 3.382813-.8125 4.90625-1.492187-.472656-3.0625-1.046875-4.6875-1.75.929688-.480469 1.871094-.988281 2.8125-1.53125.929688-.535156 1.820313-1.070312 2.6875-1.625zm-7.8125 4.3125c2.265625 1.058594 4.457031 1.917969 6.53125 2.5625-.265625.960938-.558594 1.863281-.875 2.6875-.792969 2.0625-1.734375 3.675781-2.71875 4.71875s-1.949219 1.5-2.9375 1.5-1.953125-.457031-2.9375-1.5-1.925781-2.65625-2.71875-4.71875c-.316406-.824219-.609375-1.726562-.875-2.6875 2.074219-.644531 4.265625-1.503906 6.53125-2.5625z"/></svg>

<svg xmlns="http://www.w3.org/2000/svg" viewBox="0 0 50 50" width="50" height="50" fill="#666"><path d="M 25 0 C 23.359375 0 21.867188 0.808594 20.625 2.125 C 19.382813 3.441406 18.324219 5.273438 17.46875 7.5 C 17.125 8.390625 16.8125 9.359375 16.53125 10.375 C 15.527344 10.121094 14.554688 9.894531 13.625 9.75 C 12.445313 9.5625 11.320313 9.46875 10.28125 9.46875 C 9.242188 9.46875 8.285156 9.574219 7.40625 9.78125 C 5.644531 10.195313 4.164063 11.078125 3.34375 12.5 C 2.523438 13.921875 2.480469 15.640625 3 17.375 C 3.519531 19.109375 4.59375 20.925781 6.09375 22.78125 C 6.6875 23.515625 7.367188 24.257813 8.09375 25 C 7.367188 25.742188 6.6875 26.484375 6.09375 27.21875 C 4.59375 29.074219 3.519531 30.890625 3 32.625 C 2.480469 34.359375 2.523438 36.078125 3.34375 37.5 C 4.164063 38.921875 5.644531 39.804688 7.40625 40.21875 C 9.167969 40.632813 11.265625 40.621094 13.625 40.25 C 14.554688 40.105469 15.527344 39.882813 16.53125 39.625 C 16.8125 40.640625 17.125 41.609375 17.46875 42.5 C 18.324219 44.726563 19.382813 46.558594 20.625 47.875 C 21.867188 49.191406 23.359375 50 25 50 C 26.640625 50 28.132813 49.191406 29.375 47.875 C 30.617188 46.558594 31.675781 44.726563 32.53125 42.5 C 32.875 41.609375 33.1875 40.640625 33.46875 39.625 C 34.472656 39.882813 35.445313 40.105469 36.375 40.25 C 38.734375 40.621094 40.832031 40.632813 42.59375 40.21875 C 44.355469 39.804688 45.835938 38.921875 46.65625 37.5 C 47.476563 36.078125 47.519531 34.359375 47 32.625 C 46.480469 30.890625 45.40625 29.074219 43.90625 27.21875 C 43.3125 26.484375 42.632813 25.742188 41.90625 25 C 42.632813 24.257813 43.3125 23.515625 43.90625 22.78125 C 45.40625 20.925781 46.480469 19.109375 47 17.375 C 47.519531 15.640625 47.476563 13.921875 46.65625 12.5 C 45.835938 11.078125 44.355469 10.195313 42.59375 9.78125 C 41.714844 9.574219 40.757813 9.46875 39.71875 9.46875 C 38.679688 9.46875 37.554688 9.5625 36.375 9.75 C 35.445313 9.894531 34.472656 10.121094 33.46875 10.375 C 33.1875 9.359375 32.875 8.390625 32.53125 7.5 C 31.675781 5.273438 30.617188 3.441406 29.375 2.125 C 28.132813 0.808594 26.640625 0 25 0 Z M 25 2 C 25.988281 2 26.953125 2.457031 27.9375 3.5 C 28.921875 4.542969 29.863281 6.15625 30.65625 8.21875 C 30.972656 9.042969 31.265625 9.945313 31.53125 10.90625 C 29.457031 11.546875 27.265625 12.414063 25 13.46875 C 22.734375 12.414063 20.542969 11.546875 18.46875 10.90625 C 18.734375 9.945313 19.027344 9.042969 19.34375 8.21875 C 20.136719 6.15625 21.078125 4.542969 22.0625 3.5 C 23.046875 2.457031 24.011719 2 25 2 Z M 10.28125 11.46875 C 11.195313 11.46875 12.222656 11.546875 13.3125 11.71875 C 14.179688 11.855469 15.105469 12.066406 16.0625 12.3125 C 15.59375 14.417969 15.242188 16.742188 15.03125 19.21875 C 12.972656 20.65625 11.132813 22.117188 9.53125 23.59375 C 8.839844 22.886719 8.207031 22.183594 7.65625 21.5 C 6.265625 19.78125 5.351563 18.15625 4.9375 16.78125 C 4.523438 15.40625 4.597656 14.355469 5.09375 13.5 C 5.589844 12.644531 6.449219 12.046875 7.84375 11.71875 C 8.542969 11.554688 9.367188 11.46875 10.28125 11.46875 Z M 39.71875 11.46875 C 40.632813 11.46875 41.457031 11.554688 42.15625 11.71875 C 43.550781 12.046875 44.410156 12.644531 44.90625 13.5 C 45.398438 14.355469 45.476563 15.40625 45.0625 16.78125 C 44.648438 18.15625 43.734375 19.78125 42.34375 21.5 C 41.792969 22.183594 41.160156 22.886719 40.46875 23.59375 C 38.867188 22.117188 37.027344 20.65625 34.96875 19.21875 C 34.757813 16.742188 34.40625 14.417969 33.9375 12.3125 C 34.894531 12.066406 35.820313 11.855469 36.6875 11.71875 C 37.777344 11.546875 38.804688 11.46875 39.71875 11.46875 Z M 18 12.875 C 19.480469 13.34375 21.046875 13.898438 22.65625 14.59375 C 21.734375 15.070313 20.8125 15.585938 19.875 16.125 C 18.945313 16.660156 18.054688 17.195313 17.1875 17.75 C 17.386719 16.011719 17.667969 14.386719 18 12.875 Z M 32 12.875 C 32.332031 14.386719 32.613281 16.011719 32.8125 17.75 C 31.945313 17.195313 31.050781 16.660156 30.125 16.125 C 29.1875 15.585938 28.265625 15.070313 27.34375 14.59375 C 28.953125 13.898438 30.519531 13.34375 32 12.875 Z M 25 15.6875 C 26.355469 16.347656 27.730469 17.070313 29.125 17.875 C 30.507813 18.671875 31.792969 19.507813 33.03125 20.34375 C 33.136719 21.84375 33.21875 23.390625 33.21875 25 C 33.21875 26.609375 33.136719 28.15625 33.03125 29.65625 C 31.792969 30.492188 30.507813 31.328125 29.125 32.125 C 27.730469 32.929688 26.355469 33.652344 25 34.3125 C 23.644531 33.652344 22.269531 32.929688 20.875 32.125 C 19.492188 31.328125 18.207031 30.492188 16.96875 29.65625 C 16.863281 28.15625 16.78125 26.609375 16.78125 25 C 16.78125 23.390625 16.863281 21.84375 16.96875 20.34375 C 18.207031 19.507813 19.492188 18.675781 20.875 17.875 C 22.269531 17.070313 23.644531 16.347656 25 15.6875 Z M 25 19 C 21.699219 19 19 21.699219 19 25 C 19 28.300781 21.699219 31 25 31 C 28.300781 31 31 28.300781 31 25 C 31 21.699219 28.300781 19 25 19 Z M 25 21 C 27.222656 21 29 22.777344 29 25 C 29 27.222656 27.222656 29 25 29 C 22.777344 29 21 27.222656 21 25 C 21 22.777344 22.777344 21 25 21 Z M 14.84375 21.8125 C 14.796875 22.855469 14.78125 23.914063 14.78125 25 C 14.78125 26.085938 14.796875 27.144531 14.84375 28.1875 C 13.429688 27.136719 12.179688 26.054688 11.03125 25 C 12.179688 23.945313 13.429688 22.863281 14.84375 21.8125 Z M 35.15625 21.8125 C 36.570313 22.863281 37.820313 23.945313 38.96875 25 C 37.820313 26.054688 36.570313 27.136719 35.15625 28.1875 C 35.203125 27.144531 35.21875 26.085938 35.21875 25 C 35.21875 23.914063 35.203125 22.855469 35.15625 21.8125 Z M 9.53125 26.40625 C 11.132813 27.878906 12.972656 29.347656 15.03125 30.78125 C 15.242188 33.257813 15.59375 35.582031 16.0625 37.6875 C 15.105469 37.933594 14.179688 38.144531 13.3125 38.28125 C 11.128906 38.625 9.238281 38.609375 7.84375 38.28125 C 6.449219 37.953125 5.589844 37.355469 5.09375 36.5 C 4.601563 35.644531 4.523438 34.5625 4.9375 33.1875 C 5.351563 31.8125 6.265625 30.21875 7.65625 28.5 C 8.207031 27.816406 8.839844 27.113281 9.53125 26.40625 Z M 40.46875 26.40625 C 41.160156 27.113281 41.792969 27.816406 42.34375 28.5 C 43.734375 30.21875 44.648438 31.8125 45.0625 33.1875 C 45.476563 34.5625 45.402344 35.644531 44.90625 36.5 C 44.410156 37.355469 43.550781 37.953125 42.15625 38.28125 C 40.761719 38.609375 38.871094 38.625 36.6875 38.28125 C 35.820313 38.144531 34.894531 37.933594 33.9375 37.6875 C 34.40625 35.582031 34.757813 33.257813 34.96875 30.78125 C 37.027344 29.347656 38.867188 27.878906 40.46875 26.40625 Z M 17.1875 32.21875 C 18.054688 32.773438 18.945313 33.308594 19.875 33.84375 C 20.816406 34.386719 21.757813 34.894531 22.6875 35.375 C 21.0625 36.078125 19.492188 36.652344 18 37.125 C 17.664063 35.601563 17.386719 33.96875 17.1875 32.21875 Z M 32.8125 32.21875 C 32.613281 33.96875 32.335938 35.601563 32 37.125 C 30.507813 36.652344 28.9375 36.078125 27.3125 35.375 C 28.242188 34.894531 29.183594 34.386719 30.125 33.84375 C 31.054688 33.308594 31.945313 32.773438 32.8125 32.21875 Z M 25 36.53125 C 27.265625 37.589844 29.457031 38.449219 31.53125 39.09375 C 31.265625 40.054688 30.972656 40.957031 30.65625 41.78125 C 29.863281 43.84375 28.921875 45.457031 27.9375 46.5 C 26.953125 47.542969 25.988281 48 25 48 C 24.011719 48 23.046875 47.542969 22.0625 46.5 C 21.078125 45.457031 20.136719 43.84375 19.34375 41.78125 C 19.027344 40.957031 18.734375 40.054688 18.46875 39.09375 C 20.542969 38.449219 22.734375 37.589844 25 36.53125 Z"/></svg>
